!!!OTL: IST DIE SCHWARZE KOECHIN DA
!!!ARE: Europa, Mitteleuropa, Deutschland, Dresden
!!!SCT: K2267
!!!YEM: Copyright 1995, estate of Helmut Schaffrath.
**kern
*ICvox
*Ivox
*M2/4
*k[f#c#]
*D:
=1
{8a
8a
8b
8b
=2
8a
8g
4f#}
=3
{4a
4b
=4
4a
4r}
=5
{8a
8a
8b
8b
=6
8a
8g
8f#
8d}
=7
{8a
8a
8b
8b
=8
8a
8g
8f#
8d}
=9
{4a
4b
=10
4a
4r}
==
!!!AGN: Kinder - Lied, Reigen, Tanz - Spiel
!!!ONB: ESAC (Essen Associative Code) Database: KINDER
!!!AMT: simple duple
!!!AIN: vox
!!!EED: Helmut Schaffrath
!!!EEV: 1.0
*-
